images/class__9.svg

<svg width="123" height="43" fill="none" xmlns="http://www.w3.org/2000/svg"><path d="M1.3.9c-.1 0-.3.1-.3.2v40.4c0 .1.1.2.3.2h10.3c.2 0 .3-.1.3-.2v-.1L9.5 30.5l-.4-2 .2-.1c1.8-.6 3.5-1.6 5-3 2.3-2.2 4.1-5.4 5.4-9.5 1.3-4.1 2-8.9 2.1-14.4v-.1h3.4c-.2-.1-.2-.3-.2-.5H1.3Zm.3 27.9 3.6.2h1.3c.6 0 1.2-.1 1.8-.3l.2-.1.4 1.7-.2.1c-1 .2-2 .2-3.1.3h-.5c-1-.1-2-.1-3.3-.4l-.2-.1v-1.4Zm9.7 12.4H1.6V30.7l.2.1c1.3.3 2.5.4 3.6.4h.2c1.1 0 2.2-.1 3.2-.3H9l2.3 10.3Zm7.9-25.6C18 19.5 16.3 22.9 14 25c-1.8 1.8-4.1 2.9-6.6 3.3-.6.1-1.1.1-1.7.1l-2.5-.1c-.2 0-.4 0-.6-.1l-1-.1V1.4h19.6c-.1 5.3-.8 10.2-2 14.2Z" fill="#2D333D" stroke="#2D333D" stroke-width=".25" stroke-miterlimit="10"/><path d="M25 .9c0 .1 0 .3-.2.5h3.4v.2c.1 5.5.8 10.4 2.1 14.4 1.3 4.1 3.1 7.2 5.4 9.5 1.5 1.4 3.2 2.4 5 3l.2.1-.4 2-2.4 10.8v.1c0 .1.1.2.3.2h10.3c.2 0 .3-.1.3-.2V1.2c0-.2-.1-.2-.3-.2L25 .9Zm23.3 29.3-.2.1c-1.3.3-2.4.3-3.3.4h-.5c-1.1-.1-2.1-.1-3.1-.3H41l.4-1.7.2.1 1.8.3h1.2l3.6-.2.1 1.3Zm-7.5.6h.2c1 .2 2.1.3 3.2.3h.2c1.2 0 2.3-.1 3.6-.4l.2-.1v10.5h-9.8l2.4-10.3ZM28.7 1.4h19.6v26.8l-1 .1c-.2 0-.4 0-.6.1h-2.5c-.6 0-1.1 0-1.7-.1-2.5-.4-4.8-1.5-6.6-3.3-2.3-2.2-4-5.5-5.2-9.4-1.2-4-1.9-8.8-2-14.2Z" fill="#2D333D" stroke="#2D333D" stroke-width=".25" stroke-miterlimit="10"/><path d="M84.7 38.8c-.2 0-.4-.2-.4-.4V18.2c0-.2.2-.4.4-.4s.3.2.4.3v20.3c0 .3-.2.4-.4.4Z" fill="#2D333D"/><path d="M74.1 41.9c-.2 0-.4-.2-.4-.4V3.4c0-.1.1-.3.2-.4.1 0 .2-.1.3-.2l.1-.1v-.9h-3.9c-.2 0-.4-.1-.4-.4 0-.2.2-.4.4-.4h3.9V.4c0-.2.1-.4.4-.4.2 0 .4.2.4.4v.8h6.4V0h.1c.2 0 .4.2.4.4v.8h6.4V.4c0-.2.1-.4.4-.4.2 0 .4.2.4.4v.8h6.3V.4c0-.2.1-.4.4-.4.2 0 .4.2.4.4v.8h6.4V.4c0-.2.1-.4.4-.4.3 0 .4.2.4.4v.8h6.4V.4c0-.2.1-.4.4-.4.3 0 .4.2.4.4v.8h6.4V.4c0-.2.1-.4.4-.4.2 0 .4.2.4.4v.8h3.9c.2 0 .4.1.4.4 0 .2-.2.4-.4.4h-3.9v1.2H118.2s.1 0 .1.1c.1.1.2.2.2.3v38.1c0 .2-.2.4-.4.4h-44v-.2Zm.3-.7h43.1V3.7c0-.2-.1-.3-.3-.3-.8.5-2.1.8-3.5.8-1 0-2-.2-2.8-.5-.1-.1-.3-.2-.5-.2h-.1c-.1 0-.2 0-.3.1-.1 0-.2 0-.3.1-.8.4-1.8.6-2.9.6-1.4 0-2.6-.3-3.5-.8l-.1-.1-.1.1c-.8.5-2.1.8-3.5.8-1.1 0-2.1-.2-2.9-.6l-.2-.1c-.1-.1-.2-.2-.5-.2-.2 0-.4.1-.5.2-.2.1-.3.1-.4.2-.9.3-1.7.5-2.6.5-1.4 0-2.6-.3-3.5-.8l-.1-.1h-.1c-.8.5-2.1.8-3.5.8-1.1 0-2.1-.2-2.9-.6h-.1s-.1-.1-.2-.1H81.8c-.2 0-.4.1-.5.2-.8.4-1.8.6-2.9.6-1.4 0-2.6-.3-3.5-.8l-.4-.2v.2h-.1v37.7Zm36.1-38.4c.8.5 2 .8 3.2.8 1.3 0 2.4-.2 3.1-.7l.1-.1V1.7h-6.4v1.1Zm-7.1 0c.8.5 2 .8 3.2.8 1.3 0 2.4-.2 3.1-.7l.1-.1V1.7h-6.4v1.1Zm-7.1 0c.8.5 2 .8 3.2.8 1.3 0 2.4-.2 3.1-.7l.1-.1V1.7h-6.4v1.1Zm-7.1 0c.8.5 2 .8 3.2.8 1.3 0 2.4-.2 3.1-.7l.1-.1V1.7h-6.4v1.1Zm-7.1 0c.8.5 2 .8 3.2.8 1.3 0 2.4-.2 3.1-.7l.1-.1V1.7h-6.4v1.1Zm-7 0c.8.5 2 .8 3.2.8 1.3 0 2.4-.2 3.1-.7l.1-.1V1.7h-6.4v1.1Z" fill="#2D333D"/><path d="M96.6 39c-.2 0-.4-.2-.4-.4V18.3c0-.2.2-.4.4-.4s.3.3.4.4v20.2c0 .3-.2.5-.4.5ZM109.6 38.8c-.2 0-.4-.2-.4-.4V18.2c0-.2.2-.4.4-.4s.3.2.4.3v20.3c0 .3-.2.4-.4.4Z" fill="#2D333D"/></svg>

<svg width="123" height="43" viewBox="0 0 123 43" fill="none" xmlns="http://www.w3.org/2000/svg">
<path d="M1.3 0.900024C1.2 0.900024 1 1.00002 1 1.10002V41.5C1 41.6 1.1 41.7 1.3 41.7H11.6C11.8 41.7 11.9 41.6 11.9 41.5C11.9 41.5 11.9 41.5 11.9 41.4L9.5 30.5L9.1 28.5L9.3 28.4C11.1 27.8 12.8 26.8 14.3 25.4C16.6 23.2 18.4 20 19.7 15.9C21 11.8 21.7 7.00002 21.8 1.50002V1.40002H25.2C25 1.30002 25 1.10002 25 0.900024H1.3ZM1.6 28.8L5.2 29C5.5 29 5.9 29 6.1 29H6.5C7.1 29 7.7 28.9 8.3 28.7L8.5 28.6L8.9 30.3L8.7 30.4C7.7 30.6 6.7 30.6 5.6 30.7C5.4 30.7 5.3 30.7 5.1 30.7C4.1 30.6 3.1 30.6 1.8 30.3L1.6 30.2V28.8ZM11.3 41.2H1.6V30.7L1.8 30.8C3.1 31.1 4.3 31.2 5.4 31.2C5.5 31.2 5.6 31.2 5.6 31.2C6.7 31.2 7.8 31.1 8.8 30.9H9L11.3 41.2ZM19.2 15.6C18 19.5 16.3 22.9 14 25C12.2 26.8 9.9 27.9 7.4 28.3C6.8 28.4 6.3 28.4 5.7 28.4L3.2 28.3C3 28.3 2.8 28.3 2.6 28.2L1.6 28.1V1.40002H21.2C21.1 6.70002 20.4 11.6 19.2 15.6Z" fill="#2D333D" stroke="#2D333D" stroke-width="0.25" stroke-miterlimit="10"/>
<path d="M25 0.900024C25 1.00002 25 1.20002 24.8 1.40002H28.2001V1.60002C28.3001 7.10002 29 12 30.3 16C31.6 20.1 33.4001 23.2 35.7001 25.5C37.2001 26.9 38.9001 27.9 40.7001 28.5L40.9001 28.6L40.5 30.6L38.1 41.4C38.1 41.4 38.1 41.4 38.1 41.5C38.1 41.6 38.2001 41.7 38.4001 41.7H48.7001C48.9001 41.7 49 41.6 49 41.5V1.20002C49 1.00002 48.9001 1.00002 48.7001 1.00002L25 0.900024ZM48.3 30.2L48.1 30.3C46.8 30.6 45.7 30.6 44.8 30.7C44.6 30.7 44.5 30.7 44.3 30.7C43.2 30.6 42.2001 30.6 41.2001 30.4H41L41.4001 28.7L41.6 28.8C42.2 28.9 42.8001 29 43.4001 29.1H43.7001C44 29.1 44.4 29.1 44.6 29.1L48.2001 28.9L48.3 30.2ZM40.8 30.8H41C42 31 43.1 31.1 44.2001 31.1C44.3001 31.1 44.4001 31.1 44.4001 31.1C45.6001 31.1 46.7001 31 48 30.7L48.2001 30.6V41.1H38.4001L40.8 30.8ZM28.7001 1.40002H48.3V28.2L47.3 28.3C47.1 28.3 46.9001 28.3 46.7001 28.4H44.2001C43.6 28.4 43.1 28.4 42.5 28.3C40 27.9 37.7001 26.8 35.9001 25C33.6001 22.8 31.9001 19.5 30.7001 15.6C29.5001 11.6 28.8001 6.80002 28.7001 1.40002Z" fill="#2D333D" stroke="#2D333D" stroke-width="0.25" stroke-miterlimit="10"/>
<path d="M84.7 38.8001C84.5 38.8001 84.3 38.6 84.3 38.4V18.2C84.3 18 84.5 17.8 84.7 17.8C84.9 17.8 85 18 85.1 18.1V38.4C85.1 38.7 84.9 38.8001 84.7 38.8001Z" fill="#2D333D"/>
<path d="M74.1 41.9C73.9 41.9 73.7 41.7 73.7 41.5V3.4C73.7 3.3 73.8 3.1 73.9 3C74 3 74.1 2.9 74.2 2.8L74.3 2.7V1.8H70.4C70.2 1.8 70 1.7 70 1.4C70 1.2 70.2 1 70.4 1H74.3V0.4C74.3 0.2 74.4 0 74.7 0C74.9 0 75.1 0.2 75.1 0.4V1.2H81.5V0.4V0.299999C81.5 0.199999 81.5 0 81.5 0C81.5 0 81.5 0 81.6 0C81.8 0 82 0.2 82 0.4V1.2H88.4V0.4C88.4 0.2 88.5 0 88.8 0C89 0 89.2 0.2 89.2 0.4V1.2H95.5V0.4C95.5 0.2 95.6 0 95.9 0C96.1 0 96.3 0.2 96.3 0.4V1.2H102.7V0.4C102.7 0.2 102.8 0 103.1 0C103.4 0 103.5 0.2 103.5 0.4V1.2H109.9V0.4C109.9 0.2 110 0 110.3 0C110.6 0 110.7 0.2 110.7 0.4V1.2H117.1V0.4C117.1 0.2 117.2 0 117.5 0C117.7 0 117.9 0.2 117.9 0.4V1.2H121.8C122 1.2 122.2 1.3 122.2 1.6C122.2 1.8 122 2 121.8 2H117.9V3.2H118.1C118.1 3.2 118.1 3.2 118.2 3.2C118.2 3.2 118.3 3.2 118.3 3.3C118.4 3.4 118.5 3.5 118.5 3.6V41.7C118.5 41.9 118.3 42.1 118.1 42.1H74.1V41.9ZM74.4 41.2H117.5V3.7C117.5 3.5 117.4 3.4 117.2 3.4C116.4 3.9 115.1 4.2 113.7 4.2C112.7 4.2 111.7 4 110.9 3.7C110.8 3.6 110.6 3.5 110.4 3.5H110.3C110.2 3.5 110.1 3.5 110 3.6C109.9 3.6 109.8 3.6 109.7 3.7C108.9 4.1 107.9 4.3 106.8 4.3C105.4 4.3 104.2 4 103.3 3.5L103.2 3.4L103.1 3.5C102.3 4 101 4.3 99.6 4.3C98.5 4.3 97.5 4.1 96.7 3.7L96.5 3.6C96.4 3.5 96.3 3.4 96 3.4C95.8 3.4 95.6 3.5 95.5 3.6C95.3 3.7 95.2 3.7 95.1 3.8C94.2 4.1 93.4 4.3 92.5 4.3C91.1 4.3 89.9 4 89 3.5L88.9 3.4H88.8C88 3.9 86.7 4.2 85.3 4.2C84.2 4.2 83.2 4 82.4 3.6H82.3C82.3 3.6 82.2 3.5 82.1 3.5C82 3.5 81.9 3.5 81.9 3.5H81.8C81.6 3.5 81.4 3.6 81.3 3.7C80.5 4.1 79.5 4.3 78.4 4.3C77 4.3 75.8 4 74.9 3.5L74.5 3.3V3.5H74.4V41.2ZM110.5 2.8C111.3 3.3 112.5 3.6 113.7 3.6C115 3.6 116.1 3.4 116.8 2.9L116.9 2.8V1.7H110.5V2.8ZM103.4 2.8C104.2 3.3 105.4 3.6 106.6 3.6C107.9 3.6 109 3.4 109.7 2.9L109.8 2.8V1.7H103.4V2.8ZM96.3 2.8C97.1 3.3 98.3 3.6 99.5 3.6C100.8 3.6 101.9 3.4 102.6 2.9L102.7 2.8V1.7H96.3V2.8ZM89.2 2.8C90 3.3 91.2 3.6 92.4 3.6C93.7 3.6 94.8 3.4 95.5 2.9L95.6 2.8V1.7H89.2V2.8ZM82.1 2.8C82.9 3.3 84.1 3.6 85.3 3.6C86.6 3.6 87.7 3.4 88.4 2.9L88.5 2.8V1.7H82.1V2.8ZM75.1 2.8C75.9 3.3 77.1 3.6 78.3 3.6C79.6 3.6 80.7 3.4 81.4 2.9L81.5 2.8V1.7H75.1V2.8Z" fill="#2D333D"/>
<path d="M96.6 39C96.4 39 96.2 38.8 96.2 38.6V18.3C96.2 18.1 96.4 17.9 96.6 17.9C96.8 17.9 96.9 18.2 97 18.3V38.5C97 38.8 96.8 39 96.6 39Z" fill="#2D333D"/>
<path d="M109.6 38.8001C109.4 38.8001 109.2 38.6 109.2 38.4V18.2C109.2 18 109.4 17.8 109.6 17.8C109.8 17.8 109.9 18 110 18.1V38.4C110 38.7 109.8 38.8001 109.6 38.8001Z" fill="#2D333D"/>
</svg>
